X:1
T:Title
%%score 1 { 2 | 3 }
L:1/8
Q:1/4=93
M:3/4
K:E
V:1 treble nm="Grand Piano, Soprano"
V:2 treble nm="Choir Pad, Nauman (Byrnes), 1843"
V:3 bass 
V:1
 [GB]2 [GB]>[FA] [EG][DF] | E[Ac] [GB]4 | [EG]2 [DF][EG] [FA]2 | [EG]2 [EG]2 [DF]2 | %4
w: By~Anonymous,~1843 * * * *||||
 [FB]2 [GB]>[FA] [EG][DF] | E[Ac] [GB]4 | [FB]2 [EG][FA] [EG]2 | [DF]2 [EG]4- | [EG]4 z2 |] %9
w: |||||
V:2
 B,2 B,>B, B,B, | B,E E4 | B,2 B,B, B,2 | B,2 B,4 | B,2 B,>B, B,B, | B,E E4 | B,2 B,C B,2 | %7
 B,2 B,4- | B,4 z2 |] %9
V:3
 E,2 E,>E, E,B,, | E,E, E,4 | E,2 B,,E, D,2 | E,2 B,,4 | B,,2 E,>E, E,B,, | E,E, E,4 | %6
 D,2 E,A,, B,,2 | B,,2 E,4- | E,4 z2 |] %9

